packages/tokens/icons/idea/size24Px.svg

<svg viewBox="0 0 24 24" fill="none" xmlns="http://www.w3.org/2000/svg" width="1em" height="1em"><path d="M11 21C11 21.5523 11.4477 22 12 22C12.5523 22 13 21.5523 13 21" stroke="currentColor" stroke-linecap="round" stroke-linejoin="round"/><line x1="10.5" y1="19.5" x2="13.5" y2="19.5" stroke="currentColor" stroke-linecap="round"/><path d="M17.5 10.85C17.5 12.6642 16.5715 14.2718 15.1423 15.2415C14.8344 15.4504 14.5338 15.7183 14.3106 16.0669L13.8356 16.8088C13.5599 17.2395 13.0837 17.5 12.5723 17.5H11.4277C10.9163 17.5 10.4401 17.2395 10.1644 16.8088L9.68945 16.0669C9.46624 15.7183 9.16563 15.4504 8.85773 15.2415C7.42851 14.2718 6.5 12.6642 6.5 10.85C6.5 7.90713 8.95042 5.5 12 5.5C15.0496 5.5 17.5 7.90713 17.5 10.85Z" stroke="currentColor"/><path d="M3.5 11.5L2.5 11.5" stroke="currentColor" stroke-linecap="round"/><path d="M4.5 4.5L4 4" stroke="currentColor" stroke-linecap="round"/><path d="M21.5 11.5L20.5 11.5" stroke="currentColor" stroke-linecap="round"/><path d="M20 4L19.5 4.5" stroke="currentColor" stroke-linecap="round"/><path d="M12 2.5L12 3.5" stroke="currentColor" stroke-linecap="round"/></svg>

<svg xmlns="http://www.w3.org/2000/svg" fill="none" viewBox="0 0 24 24" width="1em" height="1em"><path stroke="currentColor" stroke-linecap="round" stroke-linejoin="round" d="M11 21a1 1 0 1 0 2 0"/><path stroke="currentColor" stroke-linecap="round" d="M10.5 19.5h3"/><path stroke="currentColor" d="M17.5 10.85c0 1.814-.928 3.422-2.358 4.392a2.91 2.91 0 0 0-.831.825l-.475.742a1.5 1.5 0 0 1-1.264.691h-1.144a1.5 1.5 0 0 1-1.264-.691l-.475-.742a2.91 2.91 0 0 0-.831-.825c-1.43-.97-2.358-2.578-2.358-4.392C6.5 7.907 8.95 5.5 12 5.5s5.5 2.407 5.5 5.35Z"/><path stroke="currentColor" stroke-linecap="round" d="M3.5 11.5h-1m2-7L4 4m17.5 7.5h-1M20 4l-.5.5m-7.5-2v1"/></svg>
